app/public/favicon.svg

<svg width="146" height="159" viewBox="0 0 146 159" fill="none" xmlns="http://www.w3.org/2000/svg">
  <mask id="path-1-inside-1_2542_148" fill="white">
    <path fill-rule="evenodd" clip-rule="evenodd"
      d="M3.83318 21.5753C1.70107 22.553 0.334229 24.6835 0.334229 27.0291V150.334C0.334229 154.702 4.85258 157.606 8.82609 155.792L49.0231 137.441C50.7166 136.667 52.673 136.724 54.3188 137.594L93.4763 158.292C95.1494 159.176 97.1418 159.219 98.8516 158.408L142.212 137.84C144.305 136.847 145.64 134.738 145.64 132.421L145.666 9.18389C145.667 4.77782 141.077 1.8736 137.095 3.76107L98.8459 21.8945C97.1393 22.7036 95.1512 22.6619 93.48 21.7818L54.154 1.07294C52.5066 0.205408 50.5497 0.151848 48.8573 0.927964L3.83318 21.5753ZM43.6101 82.4086L91.2785 51.0739C94.2857 49.0971 98.1699 51.7868 97.3774 55.2972L84.7855 111.073C83.9355 114.838 78.773 115.335 77.2212 111.801L70.538 96.5807C69.02 93.1237 65.6843 90.8164 61.9141 90.6154L45.5944 89.7455C41.7381 89.5399 40.3832 84.5299 43.6101 82.4086Z" />
  </mask>
  <path fill-rule="evenodd" clip-rule="evenodd"
    d="M3.83318 21.5753C1.70107 22.553 0.334229 24.6835 0.334229 27.0291V150.334C0.334229 154.702 4.85258 157.606 8.82609 155.792L49.0231 137.441C50.7166 136.667 52.673 136.724 54.3188 137.594L93.4763 158.292C95.1494 159.176 97.1418 159.219 98.8516 158.408L142.212 137.84C144.305 136.847 145.64 134.738 145.64 132.421L145.666 9.18389C145.667 4.77782 141.077 1.8736 137.095 3.76107L98.8459 21.8945C97.1393 22.7036 95.1512 22.6619 93.48 21.7818L54.154 1.07294C52.5066 0.205408 50.5497 0.151848 48.8573 0.927964L3.83318 21.5753ZM43.6101 82.4086L91.2785 51.0739C94.2857 49.0971 98.1699 51.7868 97.3774 55.2972L84.7855 111.073C83.9355 114.838 78.773 115.335 77.2212 111.801L70.538 96.5807C69.02 93.1237 65.6843 90.8164 61.9141 90.6154L45.5944 89.7455C41.7381 89.5399 40.3832 84.5299 43.6101 82.4086Z"
    fill="#FCD34D" />
  <path
    d="M3.83318 21.5753L3.41633 20.6663L3.41633 20.6663L3.83318 21.5753ZM8.82609 155.792L8.41078 154.883L8.41078 154.883L8.82609 155.792ZM49.0231 137.441L49.4384 138.35L49.4384 138.35L49.0231 137.441ZM54.3188 137.594L53.8515 138.478L53.8515 138.478L54.3188 137.594ZM93.4763 158.292L93.9436 157.408L93.9436 157.408L93.4763 158.292ZM98.8516 158.408L98.4231 157.505L98.4231 157.505L98.8516 158.408ZM142.212 137.84L142.64 138.744L142.64 138.744L142.212 137.84ZM145.64 132.421L144.64 132.42L144.64 132.42L145.64 132.421ZM145.666 9.18389L146.666 9.1841L146.666 9.1841L145.666 9.18389ZM137.095 3.76107L136.667 2.85748L136.667 2.85748L137.095 3.76107ZM98.8459 21.8945L99.2743 22.7981L99.2743 22.7981L98.8459 21.8945ZM93.48 21.7818L93.9459 20.897L93.9459 20.897L93.48 21.7818ZM54.154 1.07294L53.688 1.95775L53.688 1.95776L54.154 1.07294ZM48.8573 0.927964L48.4405 0.0189854L48.4405 0.0189855L48.8573 0.927964ZM91.2785 51.0739L91.8277 51.9095L91.2785 51.0739ZM43.6101 82.4086L43.0608 81.573L43.0608 81.573L43.6101 82.4086ZM97.3774 55.2972L98.3529 55.5175L98.3529 55.5175L97.3774 55.2972ZM84.7855 111.073L85.7609 111.293L85.7609 111.293L84.7855 111.073ZM77.2212 111.801L76.3056 112.203L76.3056 112.203L77.2212 111.801ZM70.538 96.5807L71.4536 96.1786L71.4536 96.1786L70.538 96.5807ZM61.9141 90.6154L61.8609 91.614L61.8609 91.614L61.9141 90.6154ZM45.5944 89.7455L45.5412 90.7441L45.5412 90.7441L45.5944 89.7455ZM1.33423 27.0291C1.33423 25.0745 2.47327 23.299 4.25002 22.4842L3.41633 20.6663C0.928878 21.807 -0.665771 24.2926 -0.665771 27.0291H1.33423ZM1.33423 150.334V27.0291H-0.665771V150.334H1.33423ZM8.41078 154.883C5.09952 156.394 1.33423 153.974 1.33423 150.334H-0.665771C-0.665771 155.43 4.60564 158.818 9.2414 156.702L8.41078 154.883ZM48.6078 136.531L8.41078 154.883L9.2414 156.702L49.4384 138.35L48.6078 136.531ZM54.7862 136.71C52.866 135.695 50.5835 135.629 48.6078 136.531L49.4384 138.35C50.8496 137.706 52.48 137.753 53.8515 138.478L54.7862 136.71ZM93.9436 157.408L54.7861 136.71L53.8515 138.478L93.009 159.176L93.9436 157.408ZM98.4231 157.505C96.9982 158.181 95.3379 158.145 93.9436 157.408L93.009 159.176C94.961 160.208 97.2854 160.258 99.2802 159.312L98.4231 157.505ZM141.783 136.937L98.4231 157.505L99.2802 159.312L142.64 138.744L141.783 136.937ZM144.64 132.42C144.64 134.351 143.528 136.109 141.783 136.937L142.64 138.744C145.083 137.585 146.64 135.124 146.64 132.421L144.64 132.42ZM144.666 9.18369L144.64 132.42L146.64 132.421L146.666 9.1841L144.666 9.18369ZM137.524 4.66467C140.841 3.09177 144.666 5.51196 144.666 9.18369L146.666 9.1841C146.667 4.04368 141.312 0.65542 136.667 2.85748L137.524 4.66467ZM99.2743 22.7981L137.524 4.66467L136.667 2.85748L98.4176 20.9909L99.2743 22.7981ZM93.0141 22.6666C94.9638 23.6934 97.2832 23.7421 99.2743 22.7981L98.4176 20.9909C96.9953 21.6652 95.3386 21.6304 93.9459 20.897L93.0141 22.6666ZM53.688 1.95776L93.0141 22.6666L93.9459 20.897L54.6199 0.188122L53.688 1.95776ZM49.2741 1.83694C50.6845 1.19018 52.3152 1.23481 53.688 1.95775L54.6199 0.188122C52.6979 -0.823998 50.4149 -0.886483 48.4405 0.0189854L49.2741 1.83694ZM4.25002 22.4842L49.2741 1.83694L48.4405 0.0189855L3.41633 20.6663L4.25002 22.4842ZM90.7292 50.2382L43.0608 81.573L44.1594 83.2443L91.8277 51.9095L90.7292 50.2382ZM98.3529 55.5175C99.3435 51.1295 94.4882 47.7672 90.7292 50.2382L91.8277 51.9095C94.0832 50.4269 96.9964 52.4442 96.402 55.077L98.3529 55.5175ZM85.7609 111.293L98.3529 55.5175L96.402 55.077L83.81 110.853L85.7609 111.293ZM76.3056 112.203C78.2454 116.62 84.6985 116 85.7609 111.293L83.81 110.853C83.1726 113.677 79.3007 114.049 78.1368 111.399L76.3056 112.203ZM69.6223 96.9827L76.3056 112.203L78.1368 111.399L71.4536 96.1786L69.6223 96.9827ZM61.8609 91.614C65.2541 91.7949 68.2561 93.8715 69.6223 96.9827L71.4536 96.1786C69.7838 92.3759 66.1146 89.8379 61.9674 89.6169L61.8609 91.614ZM45.5412 90.7441L61.8609 91.614L61.9674 89.6169L45.6476 88.7469L45.5412 90.7441ZM43.0608 81.573C39.0271 84.2246 40.7209 90.4871 45.5412 90.7441L45.6476 88.7469C42.7554 88.5927 41.7392 84.8352 44.1594 83.2443L43.0608 81.573Z"
    fill="#FCD34D" mask="url(#path-1-inside-1_2542_148)" />
</svg>

<svg xmlns="http://www.w3.org/2000/svg" fill="none" viewBox="0 0 146 159">
    <mask id="a" fill="#fff">
        <path fill-rule="evenodd" d="M3.833 21.575A6 6 0 0 0 .334 27.03v123.305c0 4.368 4.519 7.272 8.492 5.458l40.197-18.351a6 6 0 0 1 5.296.153l39.157 20.698a6 6 0 0 0 5.376.116l43.36-20.568a6 6 0 0 0 3.428-5.419l.026-123.237c.001-4.406-4.589-7.31-8.571-5.423l-38.25 18.134a6 6 0 0 1-5.365-.113L54.154 1.072a6 6 0 0 0-5.297-.144zM43.61 82.41l47.668-31.335c3.008-1.977 6.892.713 6.1 4.223l-12.593 55.776c-.85 3.765-6.012 4.262-7.564.728l-6.683-15.22a10 10 0 0 0-8.624-5.966l-16.32-.87c-3.856-.205-5.21-5.215-1.984-7.336" clip-rule="evenodd"/>
    </mask>
    <path fill="#fcd34d" fill-rule="evenodd" d="M3.833 21.575A6 6 0 0 0 .334 27.03v123.305c0 4.368 4.519 7.272 8.492 5.458l40.197-18.351a6 6 0 0 1 5.296.153l39.157 20.698a6 6 0 0 0 5.376.116l43.36-20.568a6 6 0 0 0 3.428-5.419l.026-123.237c.001-4.406-4.589-7.31-8.571-5.423l-38.25 18.134a6 6 0 0 1-5.365-.113L54.154 1.072a6 6 0 0 0-5.297-.144zM43.61 82.41l47.668-31.335c3.008-1.977 6.892.713 6.1 4.223l-12.593 55.776c-.85 3.765-6.012 4.262-7.564.728l-6.683-15.22a10 10 0 0 0-8.624-5.966l-16.32-.87c-3.856-.205-5.21-5.215-1.984-7.336" clip-rule="evenodd"/>
    <path fill="#fcd34d" d="m3.833 21.575-.417-.909.417.91Zm4.993 134.217-.415-.909zm40.197-18.351.415.909zm5.296.153-.468.884zm39.157 20.698.468-.884zm5.376.116-.429-.903zm43.36-20.568.428.904zm3.428-5.419-1-.001zm.026-123.237h1zm-8.571-5.423-.428-.904zm-38.25 18.134.43.903zm-5.365-.113.466-.885zM54.154 1.072l-.466.886zM48.857.929 48.441.02zm42.421 50.146.55.836zM43.61 82.409l-.55-.836zm53.767-27.112.976.22zm-12.591 55.776.975.22zm-7.565.728-.915.402zm-6.683-15.22.916-.402zm-8.624-5.966-.053.999zm-16.32-.87-.053 1zM1.334 27.03a5 5 0 0 1 2.916-4.545l-.834-1.818A7 7 0 0 0-.666 27.03zm0 123.305V27.029h-2v123.305h2Zm7.077 4.549c-3.311 1.511-7.077-.909-7.077-4.549h-2c0 5.096 5.272 8.484 9.907 6.368zm40.197-18.352L8.41 154.883l.83 1.819 40.197-18.352-.83-1.819Zm6.178.179a7 7 0 0 0-6.178-.179l.83 1.819a5 5 0 0 1 4.413.128zm39.158 20.698L54.786 136.71l-.934 1.768 39.157 20.698zm4.48.097a5 5 0 0 1-4.48-.097l-.935 1.768a7 7 0 0 0 6.271.136l-.857-1.807Zm43.359-20.568-43.36 20.568.857 1.807 43.36-20.568zm2.857-4.517a5 5 0 0 1-2.857 4.517l.857 1.807a7 7 0 0 0 4-6.323zm.026-123.236-.026 123.236 2 .001.026-123.237zm-7.142-4.52c3.317-1.572 7.142.848 7.142 4.52h2c.001-5.14-5.354-8.529-9.999-6.327l.857 1.808Zm-38.25 18.134 38.25-18.133-.857-1.808-38.25 18.134zm-6.26-.131a7 7 0 0 0 6.26.131l-.856-1.807a5 5 0 0 1-4.472-.094zM53.688 1.957l39.326 20.71.932-1.77L54.62.188zm-4.414-.12a5 5 0 0 1 4.414.12L54.62.189A7 7 0 0 0 48.44.02l.834 1.818ZM4.25 22.484 49.274 1.837 48.44.019 3.416 20.666zm86.48 27.754L43.06 81.573l1.1 1.671L91.827 51.91l-1.099-1.672Zm7.623 5.28c.99-4.389-3.865-7.75-7.624-5.28l1.099 1.672c2.255-1.483 5.168.534 4.574 3.167l1.95.44ZM85.76 111.292l12.592-55.776-1.951-.44-12.592 55.776zm-9.455.91c1.94 4.417 8.392 3.797 9.455-.91l-1.951-.44c-.637 2.824-4.51 3.196-5.673.546zm-6.684-15.22 6.684 15.22 1.83-.804-6.682-15.22zm-7.761-5.369a9 9 0 0 1 7.761 5.369l1.832-.804a11 11 0 0 0-9.487-6.562zm-16.32-.87 16.32.87.106-1.997-16.32-.87zm-2.48-9.171c-4.034 2.652-2.34 8.914 2.48 9.171l.107-1.997c-2.893-.154-3.909-3.912-1.489-5.503z" mask="url(#a)"/>
</svg>
